public/img/svg/figma.svg

<svg width="16" height="16" viewBox="0 0 16 16" fill="none" xmlns="http://www.w3.org/2000/svg">
<path d="M12.2082 5.49687C13.0232 4.96125 13.5622 4.03906 13.5622 2.99344C13.5622 1.34281 12.2191 0 10.5685 0H5.43223C3.7816 0 2.43848 1.34281 2.43848 2.99344C2.43848 4.03906 2.97754 4.96125 3.79254 5.49687C2.97754 6.03218 2.43848 6.95437 2.43848 7.99999C2.43848 9.04562 2.97754 9.9678 3.79254 10.5034C2.97754 11.0384 2.43848 11.9609 2.43848 13.0066C2.43848 14.6572 3.78879 16 5.44817 16C7.12567 16 8.49067 14.6425 8.49067 12.9741V10.2134C9.02254 10.6981 9.7291 10.9934 10.5035 10.9934H10.5685C12.2191 10.9934 13.5622 9.65062 13.5622 7.99999C13.5622 6.95437 13.0232 6.03218 12.2082 5.49687ZM8.49067 0.980624H10.5685C11.6785 0.980624 12.5816 1.88344 12.5816 2.99344C12.5816 4.10343 11.6785 5.00656 10.5685 5.00656H8.49067V0.980624ZM3.4191 2.99344C3.4191 1.88344 4.32223 0.980624 5.43223 0.980624H7.51004V5.00656H5.43223C4.32223 5.00656 3.4191 4.10343 3.4191 2.99344ZM3.4191 7.99999C3.4191 6.89 4.32223 5.98718 5.43223 5.98718H7.51004V10.0131H5.41942C4.31535 10.0062 3.4191 9.10562 3.4191 7.99999ZM7.51004 12.9741C7.51004 14.1019 6.58504 15.0194 5.44817 15.0194C4.32941 15.0194 3.4191 14.1166 3.4191 13.0066C3.4191 11.8966 4.32223 10.9934 5.43223 10.9934H7.51004V12.9741ZM10.5685 10.0131H10.5035C9.39348 10.0131 8.49067 9.10999 8.49067 7.99999C8.49067 6.89 9.39348 5.98718 10.5035 5.98718H10.5685C11.6785 5.98718 12.5816 6.89 12.5816 7.99999C12.5816 9.10999 11.6785 10.0131 10.5685 10.0131Z" fill="#12141D"/>
</svg>

<?xml version="1.0" encoding="utf-8"?>
<!-- Generator: Adobe Illustrator 26.3.1, SVG Export Plug-In . SVG Version: 6.00 Build 0)  -->
<svg version="1.1" id="Layer_1" xmlns="http://www.w3.org/2000/svg" xmlns:xlink="http://www.w3.org/1999/xlink" x="0px" y="0px"
	 viewBox="0 0 16 16" style="enable-background:new 0 0 16 16;" xml:space="preserve">
<style type="text/css">
	.st0{display:none;fill:#12141D;}
	.st1{fill:none;}
</style>
<path class="st0" d="M12.2,5.5C13,5,13.6,4,13.6,3c0-1.7-1.3-3-3-3H5.4c-1.7,0-3,1.3-3,3c0,1,0.5,2,1.4,2.5C3,6,2.4,7,2.4,8
	c0,1,0.5,2,1.4,2.5C3,11,2.4,12,2.4,13c0,1.7,1.4,3,3,3c1.7,0,3-1.4,3-3v-2.8c0.5,0.5,1.2,0.8,2,0.8h0.1c1.7,0,3-1.3,3-3
	C13.6,7,13,6,12.2,5.5z M8.5,1h2.1c1.1,0,2,0.9,2,2c0,1.1-0.9,2-2,2H8.5V1z M3.4,3c0-1.1,0.9-2,2-2h2.1v4H5.4C4.3,5,3.4,4.1,3.4,3z
	 M3.4,8c0-1.1,0.9-2,2-2h2.1v4H5.4C4.3,10,3.4,9.1,3.4,8z M7.5,13c0,1.1-0.9,2-2.1,2c-1.1,0-2-0.9-2-2s0.9-2,2-2h2.1V13z M10.6,10
	L10.6,10c-1.2,0-2.1-0.9-2.1-2c0-1.1,0.9-2,2-2h0.1c1.1,0,2,0.9,2,2C12.6,9.1,11.7,10,10.6,10z M-195-233.9c0,0-0.1,0-0.1,0
	c-0.4-0.1-0.6-0.4-0.6-0.8c0-0.1,1.1-6.3-0.1-13.6c-0.1-0.4,0.2-0.8,0.6-0.8c0.4-0.1,0.8,0.2,0.8,0.6c1.3,7.6,0.2,13.9,0.1,14.1
	C-194.3-234.1-194.6-233.9-195-233.9z M-194.9-234.7c-5.5-0.8-11.9,6.1-7.9,9.1C-198.8-222.5-192.9-230.8-194.9-234.7z
	 M-200.9-224.2c-0.8,0-1.6-0.3-2.3-0.8c-1.5-1.1-1.9-2.9-1.1-4.8c1.3-3.1,5.6-6.1,9.6-5.6c0.2,0,0.4,0.2,0.5,0.4
	c1.4,2.7-0.5,7.1-3.1,9.3C-198.5-224.7-199.8-224.2-200.9-224.2z M-195.8-234c-3.1,0-6.3,2.4-7.3,4.8c-0.5,1.3-0.3,2.4,0.7,3.1
	c1.5,1.2,3.2,0.1,4.1-0.7c2-1.7,3.6-5.1,2.9-7.2C-195.5-234-195.6-234-195.8-234z M-191.2-218.3c-0.1,0-0.3,0-0.4-0.1
	c-0.3-0.2-0.4-0.7-0.2-1c0.1-0.2,3.5-5.6,9.6-10.3c0.3-0.2,0.8-0.2,1,0.1c0.2,0.3,0.2,0.8-0.1,1c-5.9,4.5-9.3,9.9-9.3,10
	C-190.7-218.4-190.9-218.3-191.2-218.3z M-191.4-207.3c-5-0.5-3.8-10.6,0.3-12.1C-186.5-216.3-186.4-206.9-191.4-207.3
	 M-191.5-206.6c-2.1-0.2-3.5-1.8-3.9-4.5c-0.4-3.4,1.1-7.9,4-9c0.2-0.1,0.5,0,0.6,0.1c3.3,2.2,4.4,7.4,3.3,10.6
	c-0.7,1.8-2,2.8-3.7,2.8 M-191.3-208c1.2,0.1,2.1-0.5,2.6-1.9c0.9-2.5,0-6.7-2.4-8.7c-2,1-3.1,4.6-2.7,7.3
	C-193.8-210.2-193.2-208.2-191.3-208 M-157.6-279c-0.3,0-0.6-0.2-0.7-0.5c-0.1-0.4,0.1-0.8,0.5-0.9c14.8-5,21.5-18.6,21.6-18.7
	c0.2-0.4,0.6-0.5,1-0.3c0.4,0.2,0.5,0.6,0.3,1c-0.1,0.1-1.8,3.6-5.4,7.8c-3.3,3.8-9,9-17,11.7C-157.4-279-157.5-279-157.6-279z
	 M-131.9-295c-0.2,0.2-3.4,3.6-6.4,3.6c-0.7,0-1.5-0.2-2.2-0.7c-3.2-2.4-1.3-7.6-1.3-7.8c0.1-0.4,0.5-0.6,0.9-0.4
	c0.4,0.1,0.6,0.5,0.4,0.9l0,0c0,0-1.6,4.4,0.8,6.1c2.4,1.8,6.6-2.6,6.7-2.7c0.3-0.3,0.7-0.3,1,0 M-192.3-277.8c-0.1,0-0.1,0-0.2,0
	c-8.4-1.8-14.6-6-18.3-9.3c-4-3.5-6-6.5-6.1-6.7c-0.2-0.3-0.1-0.8,0.2-1c0.3-0.2,0.8-0.1,1,0.2c0.1,0.1,8,11.9,23.5,15.3
	c0.4,0.1,0.6,0.5,0.5,0.9C-191.7-278-192-277.8-192.3-277.8z M-219.1-291.2c0,0,4.4,4,6.9,1.9c1.3-1.1,0.4-5,0-6.3
	c-0.1-0.4,0.1-0.8,0.5-0.9c0.4-0.1,0.8,0.1,0.9,0.5c0.2,0.6,1.9,5.8-0.4,7.8c-0.8,0.7-1.8,1-2.7,1c-3,0-5.9-2.8-6.1-2.9
	 M-182.3-277.2c0,0,3.4,0.1,5.2-0.5c0.1-1.9-0.3-4.9-0.3-4.9l4.9-0.4c0,0,0.5,3.8,0.5,5c2.6,0.5,5.3,0.3,5.3,0.3s0.7,8-8.1,8.2
	C-177.1-269.5-183.1-273-182.3-277.2z M-174.8-268.8c-1.7,0-4.9-1.5-6.7-3.8c-1.3-1.5-1.8-3.2-1.4-4.8c0.1-0.3,0.4-0.6,0.7-0.6
	c0,0,2.7,0.1,4.5-0.4c0-1.8-0.3-4.3-0.3-4.3c0-0.2,0-0.4,0.2-0.5c0.1-0.2,0.3-0.2,0.5-0.3l4.9-0.4c0.4,0,0.7,0.2,0.8,0.6
	c0,0.1,0.4,3,0.5,4.5c2.3,0.3,4.5,0.2,4.6,0.2c0.4,0,0.7,0.3,0.8,0.7c0,0.1,0.3,3.7-2.1,6.3C-169.5-269.8-171.8-268.9-174.8-268.8
	C-174.8-268.8-174.8-268.8-174.8-268.8z M-181.6-276.5c0,1,0.4,2,1.2,3c1.7,2,4.4,3.2,5.6,3.2c0,0,0,0,0,0c2.5-0.1,4.5-0.8,5.7-2.2
	c1.4-1.5,1.7-3.5,1.7-4.6c-1,0-2.9,0-4.7-0.3c-0.3-0.1-0.6-0.3-0.6-0.7c0-0.9-0.3-3.2-0.4-4.3l-3.5,0.3c0.1,1,0.3,2.9,0.2,4.3
	c0,0.3-0.2,0.6-0.5,0.7C-178.3-276.5-180.5-276.5-181.6-276.5z M-168-277.7c1.3,8.7-13.1,8.2-13.1,0.5c-1.4,0-7.4-0.2-11.1-1.3
	c-0.8,3.5-1.8,6.7-2.4,9c2.1,0.9,6.1,1.3,9.4,1.4c1.1,3.4-3.8,12.2-4.3,13c0,0,13.3,7.8,31.1,5c0,0-3-18.5-2.7-18.8
	c2.9-0.7,5.8-1.4,7.8-2.6c-0.9-3.6-3.2-6.9-4.1-8.2C-161.8-278.1-164.9-277.8-168-277.7z M-166.4-248.8c-5.9,0-11-1-14.6-2.1
	c-5.6-1.6-8.9-3.5-9.1-3.6c-0.2-0.1-0.3-0.3-0.3-0.4c0-0.2,0-0.4,0.1-0.5c1.1-1.8,4.8-8.8,4.4-11.9c-2.3-0.1-6.7-0.4-9.1-1.4
	c-0.3-0.1-0.5-0.5-0.4-0.8c0.2-0.7,0.4-1.4,0.6-2.3c0.6-2,1.2-4.3,1.8-6.7c0-0.2,0.2-0.4,0.3-0.5c0.2-0.1,0.4-0.1,0.6-0.1
	c3.8,1.1,9.8,1.3,11,1.3c0.4,0,0.7,0.3,0.7,0.7c0,2.5,1.8,3.8,2.9,4.4c2.3,1.2,5.3,1.1,7.2-0.3c1.4-1,1.9-2.5,1.7-4.5
	c0-0.2,0-0.4,0.2-0.6c0.1-0.2,0.3-0.3,0.5-0.3c3-0.1,6-0.4,10.2-2c0.3-0.1,0.6,0,0.8,0.3c2.1,3,3.6,5.9,4.2,8.4
	c0.1,0.3-0.1,0.6-0.3,0.8c-1.9,1.2-4.6,1.9-7.4,2.6c0.1,1.1,0.6,4.9,2.6,17.5c0.1,0.7,0.2,1.3-0.5,1.4
	C-161.2-249-163.9-248.8-166.4-248.8z M-188.7-255.4c2.8,1.4,14.5,6.8,29.3,4.6c-0.3-1.6-1-6-1.6-10c-1.2-8.2-1.2-8.3-0.8-8.6
	c0.1-0.1,0.2-0.2,0.3-0.2l0.5-0.1c2.5-0.6,4.9-1.2,6.6-2.2c-0.4-1.6-1.4-4-3.5-6.9c-3.8,1.4-6.6,1.7-9.4,1.8
	c0.1,2.1-0.7,3.9-2.3,5.1c-2.3,1.7-5.9,1.8-8.7,0.4c-2.1-1.1-3.4-2.8-3.6-4.9c-1.9-0.1-6.5-0.3-9.9-1.1c-0.5,2.2-1.1,4.2-1.6,6.1
	c-0.2,0.6-0.3,1.1-0.5,1.6c1.8,0.6,4.9,1,8.6,1.1c0.3,0,0.6,0.2,0.7,0.5C-183.6-265-187.4-257.6-188.7-255.4z M-160.1-259.7
	c-0.4-2.5-0.8-5.1-1-6.8c-10.1,2.7-19.1,1.7-24.2,0.6c-0.2,1.6-0.9,3.6-1.7,5.5C-182.7-259-172.2-256.4-160.1-259.7z M-172.1-257.4
	c-7,0-12.5-1.5-15.1-2.4c-0.2-0.1-0.3-0.2-0.4-0.4c-0.1-0.2-0.1-0.4,0-0.6c0.9-2.1,1.5-3.9,1.7-5.3c0-0.2,0.1-0.4,0.3-0.5
	c0.2-0.1,0.4-0.2,0.6-0.1c5.5,1.2,14.1,2,23.8-0.6c0.2-0.1,0.4,0,0.6,0.1c0.2,0.1,0.3,0.3,0.3,0.5c0.2,1.5,0.5,3.8,1,6.8
	c0.1,0.4-0.2,0.7-0.5,0.8C-164.2-257.9-168.4-257.4-172.1-257.4z M-186-260.9c4.3,1.3,14,3.5,25.1,0.7c-0.3-2.2-0.6-4-0.8-5.4
	c-9.3,2.3-17.5,1.7-23,0.6C-184.9-263.9-185.4-262.5-186-260.9z M-186.9-254.1c-3.2-1.4-9.6-4.9-11.9,0c-1.3,2.7-0.4,14.1-0.4,14.1
	s7.4,1.7,10.6,0.7c0.1-2.7-0.1-4.6,0.1-6.3c0,0,7.4,1.3,8.3,0.9c0.8,5.4-10.1,17.6-10.1,17.6s3.3,5.4,6.3,7.3
	c12.8-8.5,20.7-19.4,19.9-29.8C-177.5-249.4-182.3-252.2-186.9-254.1z M-184-219c-0.1,0-0.3,0-0.4-0.1c-3.1-2-6.4-7.3-6.5-7.6
	c-0.2-0.3-0.1-0.6,0.1-0.9c2.8-3.2,9.7-11.9,9.9-16.4c-1.6,0-4.7-0.5-6.9-0.8c0,0.6,0,1.3,0,2c0,1,0,2.2,0,3.5
	c0,0.3-0.2,0.6-0.5,0.7c-3.4,1-10.7-0.7-11-0.7c-0.3-0.1-0.5-0.3-0.6-0.6c-0.1-1.2-0.9-11.7,0.5-14.4c2.4-5,8.2-2.4,11.6-0.8
	c0.4,0.2,0.8,0.4,1.2,0.5l0,0c0.5,0.2,0.9,0.4,1.4,0.6c4.1,1.8,9.2,4,21,3.8c0.4,0,0.7,0.3,0.7,0.7c0.5,5.2-1.2,10.7-4.9,16.1
	c-3.5,5.1-8.8,10.1-15.3,14.4C-183.7-219.1-183.8-219-184-219z M-189.4-227c0.8,1.2,3.2,4.7,5.4,6.4c12.7-8.5,19.6-18.8,19.2-28.3
	c-11.7,0.1-16.8-2.2-20.9-4c-0.5-0.2-1-0.4-1.4-0.6c-0.4-0.2-0.8-0.3-1.2-0.5c-4.2-1.9-8.1-3.3-9.8,0.1c-0.9,1.9-0.6,9.7-0.4,13.2
	c1.6,0.3,6.5,1.3,9.2,0.8c0-1.1,0-2,0-2.9c0-1.1,0-2,0.1-2.9c0-0.2,0.1-0.4,0.3-0.5c0.2-0.1,0.4-0.2,0.6-0.1
	c3.3,0.6,7.3,1.1,7.9,0.9c0.2-0.1,0.4-0.1,0.6,0c0.2,0.1,0.3,0.3,0.4,0.5C-178.8-239.6-187.5-229.2-189.4-227z M-180.5-245.4
	C-180.5-245.4-180.5-245.4-180.5-245.4C-180.5-245.4-180.5-245.4-180.5-245.4z M-149.3-309.4c2,15.1-8.4,26.7-22.9,28.6
	c-14.5,1.9-27.6-6.5-29.7-21.6c-2-15.1,8.2-28.3,22.7-30.3C-164.7-334.5-151.3-324.4-149.3-309.4z M-176.3-279.7
	c-5.8,0-11.3-1.7-15.8-4.8c-5.7-4-9.5-10.3-10.4-17.7c-1-7.4,0.9-14.8,5.3-20.6c4.4-5.8,10.8-9.5,18-10.5c7.2-1,14.4,0.9,20.2,5.4
	c5.8,4.5,9.5,11,10.5,18.5h0c1,7.4-0.9,14.4-5.4,19.8c-4.3,5.2-10.8,8.7-18.1,9.6C-173.6-279.8-175-279.7-176.3-279.7z
	 M-175.6-332.1c-1.2,0-2.3,0.1-3.5,0.2c-6.9,0.9-12.9,4.4-17.1,9.9c-4.2,5.5-6,12.5-5,19.5c0.9,7,4.4,12.9,9.8,16.7
	c5.3,3.7,12,5.2,19,4.3c14.8-2,24.2-13.7,22.3-27.8v0c-0.9-7.1-4.5-13.3-10-17.5C-164.5-330.3-170-332.1-175.6-332.1z M-144-318.9
	c4-0.5,2.9-10.2-2.6-12.8c2.6-8.5-3.2-16.7-9-16.6c-6.1,0.1-2.4,7.3-2.4,7.3s-11-20-27-16.2c-6.1,1.4-6,5.4-4.4,9
	c-8-3.2-16.6-4.9-21.6-1.1c-3.5,2.6,0.3,6.8,4.5,10.1c-5.3,1.6-9.5,4-9.8,8c-0.3,3.8,3.7,5.5,8.3,6.4c-8.3,5-6.4,14.8-1.9,14.2
	c-4.2,2.1,0.1,10.4,7.3,9.4c0,0,0.3,0,0.7-0.1c-0.1-0.3-0.1-0.6-0.1-0.9c-2-15.1,8.2-28.3,22.7-30.3s27.9,8.2,29.9,23.2
	c0,0.3,0.1,0.6,0.1,0.9c0.1,0,0.2,0,0.2,0C-140.2-309.3-139.4-318-144-318.9z M-203.8-300.5c-4.1,0-7.2-2.8-8.2-5.7
	c-0.5-1.5-0.3-2.9,0.4-3.9c-1.1-0.4-2-1.4-2.5-2.9c-1.2-3.4,0-8.2,4.2-11.5c-3-0.7-7.6-2.4-7.2-6.8c0.3-3.5,3.3-6.3,9-8.2
	c-3.4-2.8-5.1-5.3-5.1-7.4c0-1.2,0.6-2.2,1.6-3c5.3-4,13.9-2.2,20.8,0.4c-0.6-1.9-0.5-3.5,0.1-4.9c0.8-1.7,2.6-2.9,5.3-3.5
	c6.8-1.6,13.8,0.8,20.2,6.9c2.1,2,3.9,4.2,5.2,5.9c0-0.8,0.1-1.6,0.5-2.2c0.7-1.1,1.9-1.7,3.7-1.7c0,0,0.1,0,0.1,0
	c2.7,0,5.3,1.5,7.3,4.2c2.7,3.6,3.6,8.3,2.4,12.7c3.5,2,5.3,6.9,4.8,10.4c-0.2,1.2-0.6,2.2-1.3,2.8c1.2,0.8,1.9,2.3,1.8,4
	c-0.2,3.1-2.9,6.7-8.5,7.2l-0.2,0c-0.4,0-0.7-0.3-0.8-0.6c0-0.3-0.1-0.6-0.1-0.9c-0.9-7.1-4.5-13.3-10-17.5
	c-5.4-4.2-12.2-6-19.1-5.1c-6.9,0.9-12.9,4.4-17.1,9.9c-4.2,5.5-6,12.5-5,19.5c0,0.3,0.1,0.6,0.1,0.9c0.1,0.4-0.2,0.8-0.6,0.8
	l-0.7,0.1C-202.8-300.5-203.3-300.5-203.8-300.5z M-209.8-311.4c0.3,0,0.6,0.2,0.7,0.5c0.1,0.3-0.1,0.7-0.4,0.9
	c-1.6,0.8-1.3,2.6-1.1,3.4c0.7,2.3,3.7,5.3,8,4.7l0,0c0-0.1,0-0.2,0-0.2c-1-7.4,0.9-14.8,5.3-20.6c4.4-5.8,10.8-9.5,18-10.5
	c7.2-1,14.4,0.9,20.2,5.4c5.8,4.5,9.5,11,10.5,18.5c0,0.1,0,0.2,0,0.2c4.4-0.6,6.5-3.4,6.6-5.8c0.1-1.7-0.8-2.9-2.2-3.2
	c-0.3-0.1-0.6-0.4-0.6-0.7c0-0.4,0.3-0.6,0.6-0.7c1.2-0.2,1.6-1.5,1.7-2.3c0.5-3.1-1.2-7.6-4.5-9.1c-0.3-0.2-0.5-0.5-0.4-0.9
	c1.3-4.2,0.5-8.7-2-12c-1.7-2.3-4-3.7-6.3-3.6c-1.2,0-2.1,0.4-2.5,1c-0.9,1.5,0.2,4.3,0.7,5.3c0.2,0.3,0,0.8-0.3,1
	c-0.3,0.2-0.8,0.1-1-0.3c0,0-2.8-5-7.4-9.4c-6.1-5.8-12.5-8-18.8-6.5c-2.3,0.5-3.7,1.4-4.4,2.7c-0.6,1.3-0.5,3.1,0.5,5.2
	c0.1,0.3,0.1,0.6-0.1,0.8c-0.2,0.2-0.5,0.3-0.8,0.2c-6.7-2.7-15.7-5.1-20.9-1.2c-0.7,0.6-1.1,1.2-1.1,1.9c0,1.2,1,3.4,5.6,7.1
	c0.2,0.2,0.3,0.4,0.3,0.7c-0.1,0.3-0.2,0.5-0.5,0.6c-5.9,1.8-9,4.2-9.3,7.4c-0.2,2.7,2.2,4.5,7.7,5.6c0.3,0.1,0.5,0.3,0.6,0.6
	c0.1,0.3-0.1,0.6-0.3,0.7c-5.3,3.2-5.9,8.2-5,10.7C-212.1-312-211.1-311.2-209.8-311.4C-209.9-311.4-209.9-311.4-209.8-311.4z
	 M-187.1-298.5c0,2.2-1.8,4-4,4c-2.2,0-4-1.8-4-4c0-2.2,1.8-4,4-4C-188.9-302.6-187.1-300.8-187.1-298.5z M-153.4-302.3
	c0,2.2-1.8,4-4,4s-4-1.8-4-4s1.8-4,4-4S-153.4-304.6-153.4-302.3z M-167.1-309.5C-167.1-309.5-167.2-309.5-167.1-309.5
	c-0.4,0-0.7-0.3-0.7-0.6c0-0.2,0-0.3,0.1-0.5c0,0,0,0,0,0c1-3.1,2.8-4.1,4.1-4.3c2-0.4,3.9,0.6,5.4,2.7c0,0,0,0,0,0
	c0.1,0.1,0.2,0.2,0.2,0.4c0.1,0.3-0.1,0.7-0.4,0.8c-0.2,0.1-0.6,0.1-0.9-0.4c-1.1-1.6-2.5-2.4-3.9-2.1c-1.4,0.2-2.4,1.3-3,3.3
	C-166.4-310-166.6-309.5-167.1-309.5z M-177.1-305.8C-177.1-305.8-177.2-305.8-177.1-305.8c-0.4,0-0.6-0.3-0.7-0.6
	c0-0.1,0-0.3,0.1-0.4c0.5-1.6,1.5-2.1,2.2-2.3c1.1-0.2,2.1,0.3,2.9,1.4c0.1,0.1,0.1,0.2,0.2,0.3c0.1,0.3-0.1,0.7-0.4,0.8
	c-0.1,0-0.6,0.2-0.9-0.3c-0.4-0.6-0.9-0.9-1.5-0.8c-0.5,0.1-0.9,0.5-1.1,1.3C-176.6-305.9-177-305.8-177.1-305.8z M-192.8-305.9
	C-192.9-305.9-192.9-305.9-192.8-305.9c-0.4,0-0.7-0.3-0.7-0.6c0-0.2,0-0.3,0.1-0.4c0,0,0,0,0,0c1-3.1,2.8-4.1,4.1-4.3
	c2-0.4,3.9,0.6,5.4,2.7c0,0,0,0,0,0c0.1,0.1,0.2,0.2,0.2,0.4c0.1,0.3-0.1,0.7-0.4,0.8c-0.2,0.1-0.6,0.1-0.9-0.4
	c-0.8-1.1-2.1-2.4-3.9-2.1c-0.9,0.2-2.2,0.9-3,3.3C-192.2-306.1-192.5-305.9-192.8-305.9z M-182-301.4c1.8-2.3,2.7,1,7,0.6
	c4.4-0.4,4.7-3.9,7-1.4c1.9,2.1,1.3,14.7-5.9,15.2C-181.1-286.4-183.7-299.2-182-301.4z M-174.3-286.2c-2.7,0-5.2-1.8-6.9-5
	c-2-3.7-2.7-9-1.4-10.7c0,0,0,0,0,0c1.3-1.7,2.5-1.1,3.6-0.5c0.9,0.5,2.1,1,3.9,0.9c1.8-0.2,2.8-0.9,3.6-1.4c1.1-0.7,2.3-1.6,4,0.3
	c1.4,1.5,1.6,7-0.1,11.2c-1.3,3.3-3.5,5.1-6.3,5.3C-174-286.2-174.2-286.2-174.3-286.2z M-181.5-300.9c-0.7,0.9-0.5,5.3,1.5,9.1
	c1.1,2,3,4.4,6,4.2c2.8-0.2,4.3-2.5,5-4.4c1.6-4,1.2-8.8,0.4-9.7c-0.9-0.9-1-0.8-2.1-0.1c-0.9,0.6-2.2,1.5-4.3,1.7
	c-2.2,0.2-3.6-0.5-4.6-1C-180.7-301.6-180.9-301.7-181.5-300.9L-181.5-300.9z M-150.4-309.1c0,0-0.1-3.1,3.6-4.1
	c3.8-1.1,6.2,3.8,4.6,7.2c-1.6,3.4-5.9,4.1-7.7,2L-150.4-309.1z M-147-302.2c-1.4,0-2.6-0.5-3.4-1.5c-0.2-0.3-0.2-0.8,0.1-1
	c0.3-0.2,0.8-0.2,1,0.1c0.6,0.7,1.6,1.1,2.7,0.9c1.3-0.1,2.9-0.9,3.7-2.7c0.8-1.6,0.5-3.8-0.7-5.2c-0.5-0.6-1.5-1.4-3.1-1
	c-3,0.9-3,3.3-3,3.4c0,0.4-0.3,0.7-0.7,0.7c0,0,0,0,0,0c-0.4,0-0.7-0.3-0.7-0.7c0-1.3,0.8-3.9,4.1-4.8c1.7-0.5,3.4,0,4.6,1.4
	c1.5,1.8,1.9,4.6,0.9,6.7c-0.9,2-2.8,3.3-4.9,3.6C-146.6-302.2-146.8-302.2-147-302.2z M-201-302.3c0,0-0.8-3-4.5-3.1
	c-4,0-5,5.3-2.6,8.1c2.4,2.8,6.8,2.4,7.9-0.1L-201-302.3z M-203.9-294.6c-1.8,0-3.6-0.8-4.8-2.2c-1.6-1.8-1.9-4.6-0.9-6.7
	c0.8-1.6,2.2-2.6,4-2.6c0,0,0,0,0,0c3.4,0,4.9,2.4,5.2,3.6c0.1,0.4-0.1,0.8-0.5,0.9c-0.4,0.1-0.8-0.1-0.9-0.5c0-0.1-0.7-2.5-3.8-2.5
	c0,0,0,0,0,0c-1.6,0-2.4,1.1-2.7,1.8c-0.8,1.6-0.5,3.8,0.7,5.2c1.3,1.5,3.1,1.9,4.3,1.7c1.1-0.2,2-0.8,2.4-1.6
	c0.2-0.4,0.6-0.5,0.9-0.4c0.4,0.2,0.5,0.6,0.4,0.9c-0.6,1.3-1.9,2.2-3.5,2.5C-203.3-294.6-203.6-294.6-203.9-294.6z M-159.9-331.6
	c7.7,5.6,6.1,8.8,2.8,8.7c-5.2-0.2-9.3-6.7-9.3-6.7s1.5,7-5.1,6.9c-5.6-0.1-7.3-7.1-7.3-7.1s-0.9,10.6-8.4,9.8c-5.1-0.5-5-7-5-7
	s-3.7,12.3-8.9,10.1c-8.1-3.4,9.3-19.3,20.2-20.3C-170.3-338.3-159.9-331.6-159.9-331.6z M-200-315.9c-0.5,0-1-0.1-1.5-0.3
	c-0.4-0.2-0.5-0.6-0.4-0.9c0.2-0.4,0.6-0.5,0.9-0.4c0.7,0.3,1.4,0.3,2.1-0.1c2.8-1.3,5.2-7.4,5.9-9.6c0.1-0.3,0.4-0.6,0.8-0.5
	c0.4,0.1,0.6,0.4,0.6,0.7c0,0,0,1.7,0.6,3.3c0.7,2,2,3,3.7,3c6.9,0,7.7-8.7,7.7-9.1c0-0.3,0.3-0.6,0.6-0.7c0.3,0,0.7,0.2,0.8,0.5
	c0,0.1,2.4,7.2,7.4,6.6c1.2-0.1,2.1-0.6,2.7-1.4c1.3-1.8,0.9-4.6,0.9-4.6c-0.1-0.3,0.1-0.6,0.4-0.8c0.3-0.1,0.7,0,0.9,0.2
	c0.1,0.1,6.2,8.2,11.1,5.3c0.3-0.2,0.8-0.1,1,0.2c0.2,0.3,0.1,0.8-0.2,1c-4.5,2.7-9.4-1.6-11.6-4.1c-0.1,1.1-0.4,2.5-1.2,3.6
	c-0.9,1.1-2.1,1.8-3.7,2c-4.1,0.5-6.7-2.9-8-5.4c-0.2,0.8-0.5,1.8-1,2.7c-1.6,3.5-4.3,5.3-7.8,5.3c-1.4,0-2.6-0.5-3.6-1.4
	c-0.9-0.9-1.5-2.2-1.8-3.4c-1.1,2.7-3.1,6.5-5.6,7.8C-198.8-316.1-199.4-315.9-200-315.9z"/>
<g>
	<rect x="2.9" y="0" class="st1" width="9.1" height="16"/>
	<path d="M7.8,14.7V4.4l-3,7.1L2.8,9.9L7,0.6h3.2v14.1H7.8z"/>
</g>
</svg>
